X:20
T:B020-  The Bailiff's Daughter of Islington
S:via BBBM, from 'Jovial Crew', 1731
N:Tune is harmonic minor mode
Q:1/4=120
L:1/4
M:C|
K:Gm
BA/2B/2cB/2A/2|dG^F3/2D/2|BB(c/2d/4e/4) (d/2c/2)|d3B|\
BA/2B/2cB/2A/2|dG^F2|(GA/2B/2)^FE/2D/2|GA/2B/2G2|]

